X:1
T:E b Major Daniel Belknap, 1800
T:Adapted from David Humphreys, American Winter, 1790
T:Winter
T:Transcribed from The Evangelical Harmony, 1800.
%%score [ 1 2 3 4 ]
L:1/8
Q:1/4=120
M:4/4
K:Eb
V:1 treble nm="Tr." snm="Tr."
V:2 treble nm="C." snm="C."
V:3 treble-8 nm="T." snm="T."
V:4 bass nm="B." snm="B."
V:1
 B4 e2 e2 | e2 c2 B2 A2 | G6 A2 | B2 d2 e2 e2 | e2 c2 B4- | B4 z4 | z8 | z8 | z4 c4 | c2 c2 c2 c2 | %10
 B2 cd e2 e2 | e2 e2 d2 c2 | B4 B4 | B8 |] %14
V:2
 E4 G2 G2 | G2 F2 E2 F2 | G6 F2 | G2 F2 E2 G2 | G2 F2 F4- | F4 z4 | z8 | z8 | z4 F4 | A2 A2 A2 F2 | %10
w: Now clouds the|win- try skies de-|form, In|sul- len ven- geance|roars the storm;~|_|||The|snow from which yon|
 F2 F2 G2 G2 | E2 A2 G2 GE | F4 F4 | G8 |] %14
w: moun- tain falls Loads|leaf- less trees, and *|fills the|vales.|
V:3
 B4 B2 B2 | G2 A2 B2 c>d | e6 cd | e2 d2 c2 c2 | B2 =A2 B4- | B4 B4 | c2 c2 B2 e2 | c2 d2 e4- | %8
w: |||||* The|snow from which yon|moun- tain falls~|
 e4 c4 | f2 f2 f2 fe | d2 c2 B2 B2 | c2 c2 B2 e2 | f4 d4 | e8 |] %14
w: _ _||||||
V:4
 E,4 E,2 E,2 | E,2 F,2 G,2 F,2 | E,6 F,2 | E,2 B,,2 C,2 C,D, | E,2 F,2 B,,4- | B,,4 E,4 | %6
 A,2 A,2 G,2 E,2 | A,2 B,2 E,4- | E,4 F,4 | F,2 F,2 F,2 F,2 | B,2 A,2 G,2 E,2 | %11
 A,2 F,2 G,2 [E,E]2 | B,4 B,,4 | E,8 |] %14

